X: 1
T: Lliw Lili Ymysg Y Drain
M: 3/4
L: 1/8
R: waltz
K: Emin
|: B2 |\
B2 e2 E2 | G3 A BA | B2 g2 fe | d3 c BA |
B2 e2 E2 | G3 A BA | B2 g2 f2 | e4 :|
|: f2 |\
g3 a b2 | f3 g a2 | g3 f ed | B4 A2 |
G3 A B2 | G3 A B2 | B2 g2 f2 | e4 :|
